X:1
T:Title
%%score { ( 1 2 ) | ( 3 4 ) }
L:1/8
M:3/4
K:Eb
V:1 treble nm="Grand Piano"
V:2 treble 
V:3 bass 
V:4 bass 
V:1
 z2 z2[Q:1/4=100] z z/ F/ | GG G2 G>A | GF F2 F>G | [FA][FA] [FA]2 [GB]2 |[M:2/4] G4 |[M:1/4] G>A | %6
[M:3/4] [B,GB][B,GB] [B,GB]2 [Be]2 | [Bd]c c2 Ac | B3 B [DF][FA] |[M:2/4] G4 |[M:1/4] G>A | %11
[M:3/4] [B,GB][B,GB] [B,GB]2 [Be]2 | [Bd]c c2 Ac | B3 B [DF][DG] |[M:2/4] E4 |[M:1/4] F2 | %16
[M:3/4] BB c2 d2 | fe d2 [FB]2 | [Fd][Ec] [Ge]2 [E=A]2 |[M:2/4] [DB]4 |[M:1/4] [EG]>[FA] | %21
[M:3/4] [GB][GB] [GB]2 [Be]2 | [Bd]c c2 Ac | B3 B [DF][DG] |[M:6/4] .E6 z6 |] %25
V:2
 z2 z2 E2 | x6 | x6 | x6 |[M:2/4] x4 |[M:1/4] x2 |[M:3/4] x6 | x6 | x6 |[M:2/4] x4 |[M:1/4] x2 | %11
[M:3/4] x6 | x6 | x6 |[M:2/4] x4 |[M:1/4] x2 |[M:3/4] x6 | x6 | x6 |[M:2/4] x4 |[M:1/4] x2 | %21
[M:3/4] x6 | x6 | x6 |[M:6/4] x12 |] %25
V:3
 z2 z2 G,>A, | [E,B,E][E,B,E] [E,B,E]2 E>[K:treble]F | [B,E][B,D] [B,D]2 D>E | %3
 [B,,B,][B,,B,] [B,,B,]2 [B,,B,]2 |[M:2/4] [E,B,E]4 |[M:1/4] E>F |[M:3/4] E,E, E,2 [G,B,]2 | %7
 [A,E][A,EA] [A,EA]2 [CE][EA] | [B,EG]3 [B,G][K:bass] [B,,B,][B,,B,] |[M:2/4] [E,B,E]4 | %10
[M:1/4] E>F |[M:3/4] E,E, E,2 [G,B,]2 | [A,E][A,EA] [A,EA]2 [CE][EA] | %13
 [B,EG]3 [B,G][K:bass] [B,,A,][B,,B,] |[M:2/4] [E,G,]4 |[M:1/4][K:treble] [B,D]2 | %16
[M:3/4] [B,DF][B,DF] [B,EF]2 [B,F]2 | [B,EG][B,EG] [B,F]2[K:bass] [D,B,]2 | %18
 [F,B,][F,=A,] [F,A,]2 [F,C]2 |[M:2/4] [B,,B,]4 |[M:1/4] [E,B,]2 | %21
[M:3/4] [E,B,][E,B,] [E,B,]2 [G,B,]2 | [A,E][A,EA] [A,EA]2 [CE][EA] | %23
 [B,EG]3 [B,G][K:bass] [B,,A,][B,,B,] |[M:6/4] .[E,G,]6 z6 |] %25
V:4
 z2 z2 E,2 | z2 z2 [E,C]2[K:treble] | z2 z2 B,2 | x6 |[M:2/4] x4 |[M:1/4] [E,B,]2 |[M:3/4] x6 | %7
 z2 z2 A,2 | x4[K:bass] x2 |[M:2/4] x4 |[M:1/4] [E,B,]2 |[M:3/4] x6 | z2 z2 A,2 | x4[K:bass] x2 | %14
[M:2/4] x4 |[M:1/4][K:treble] x2 |[M:3/4] x6 | x4[K:bass] x2 | x6 |[M:2/4] x4 |[M:1/4] x2 | %21
[M:3/4] x6 | z2 z2 A,2 | x4[K:bass] x2 |[M:6/4] x12 |] %25

